X: 199
T: Tennessee Breakdown
B: canberra pickers and fiddlers
B: old time tunes update
B: tunes
M:C|
L:1/8
Q: 1/4=100
K:G
V:1 
%Z:Jim Kendrick
|:g2-|| "G"gage dBde | g2bg agef | gage d2 ed | "D"BGAF "G"G2 :|
"G"A2 |:J[D4B] G2AB- | BGAG EG3 | J[D4B] G2EG | "D"DB,DG "G"EG3 :|
"G"J[G,6G] AG | BGAG EG3 | J[G,6G]EE | DB,DG EG3 | J[D6B]A2 |
JB2BG AGED | J[D3B][G,G]- [G,2G] EG | DB,DG EG3 |]
% abcbook-tune_id 67a7d9ec1b36a64b1b7c2aed
% abcbook-tune_composer_id 
% abcbook-link-0 https://www.youtube.com/watch?v=sJzAAm4D0ng
% abcbook-link-title-0 Tennessee Breakdown
% abcbook-link-1 
% abcbook-link-title-1 
% abcbook-boost 0
% abcbook-difficulty 0
% abcbook-tags old time tunes
% abcbook-tablature 
% abcbook-transpose 
% abcbook-tuning GDAD
% abcbook-lastupdated 1739099234009
% abcbook-src-url 
% abcbook-soundfonts 
% abcbook-repeats 1


